lib/brands/logos/pinterest.svg

<svg xmlns="http://www.w3.org/2000/svg" fill="none" aria-hidden="true" viewBox="0 0 211 56"><g id="Pinterest"><g id="Group"><g id="Union"><path fill="#E60023" d="M91.782 15.858C91.782 13.8454 90.1506 12.2141 88.1382 12.2141C86.1258 12.2141 84.4943 13.8454 84.4943 15.858C84.4943 17.8704 86.1258 19.5016 88.1382 19.5016C90.1506 19.5016 91.782 17.8704 91.782 15.858Z"/><path fill="#E60023" d="M98.2951 20.9628H92.4441V40.0437H98.5186V29.4969C98.5186 27.1492 99.8604 25.472 101.873 25.472C103.848 25.472 104.854 26.851 104.854 28.8636V40.0437H110.929V27.6336C110.929 23.3852 108.469 20.4038 104.295 20.4038C101.649 20.4038 99.823 21.5217 98.4068 23.5715H98.2951V20.9628Z"/><path fill="#E60023" d="M91.1758 20.9628H85.1011V40.0437H91.1758V20.9628Z"/><path fill="#E60023" d="M153.048 20.6648C153.28 20.6648 153.479 20.6717 153.652 20.6873V25.9815C150.179 25.6604 147.979 27.5007 147.979 31.4723V40.0437H141.905V20.9629H147.719V23.9443H147.83C149.172 21.671 150.737 20.6648 153.048 20.6648Z"/><path fill="#E60023" d="M183.463 28.0062C183.164 27.9511 182.869 27.8999 182.581 27.85C180.54 27.4956 178.879 27.2073 178.879 26.0313C178.879 24.8386 180.034 24.2797 181.525 24.2797C183.202 24.2797 184.357 24.8014 184.581 26.5158H190.171C189.873 22.7518 186.966 20.4038 181.562 20.4038C177.053 20.4038 173.326 22.4908 173.326 26.5158C173.326 30.9876 176.866 31.8821 180.183 32.4412C180.448 32.488 180.711 32.5319 180.969 32.575C183.175 32.9441 185.028 33.254 185.028 34.789C185.028 36.0189 183.873 36.6897 182.047 36.6897C180.215 36.6897 179.003 35.9146 178.631 34.3419H172.843C173.269 38.2644 176.712 40.64 182.084 40.64C187.078 40.64 190.767 38.4785 190.767 34.3047C190.767 29.4225 186.817 28.5654 183.463 28.0062Z"/><path fill="#E60023" fill-rule="evenodd" d="M159.125 32.0683C159.498 34.6398 160.914 36.2421 163.411 36.2421C165.014 36.2421 166.057 35.5343 166.579 34.3418H172.504C172.094 36.056 170.976 37.6958 169.299 38.8511C167.697 39.9691 165.759 40.6027 163.336 40.6027C157.038 40.6027 153.162 36.2421 153.162 30.466C153.162 24.7638 157.15 20.4037 162.964 20.4037C165.684 20.4037 167.846 21.2982 169.486 22.7889C171.759 24.8757 172.877 28.1926 172.84 32.0683H159.125ZM166.691 28.4536C166.467 26.1801 165.051 24.7266 163.076 24.7266C160.765 24.7266 159.572 26.1801 159.163 28.4536H166.691Z" clip-rule="evenodd"/><path fill="#E60023" d="M201.466 35.5443L201.391 35.5473C201.12 35.5581 200.777 35.5718 200.459 35.5718C199.155 35.5718 198.335 35.199 198.335 33.7083V24.7641H201.466V20.9629H198.335V14.9256H192.409V20.9629H190.545V24.7641H192.409V35.0127C192.409 39.1122 194.944 40.2673 198.484 40.2673C199.835 40.2673 200.856 40.1662 201.466 40.0472V35.5443Z"/><path fill="#E60023" d="M120.993 35.5715C121.255 35.5715 121.535 35.5621 121.777 35.5527V40.0864C121.154 40.1873 120.216 40.267 119.018 40.267C115.478 40.267 112.944 39.1119 112.944 35.0124V24.7638H110.968V20.9626H112.944V14.9252H118.869V20.9626H121.777V24.7638H118.869V33.708C118.869 35.1987 119.689 35.5715 120.993 35.5715Z"/><path fill="#E60023" fill-rule="evenodd" d="M121.48 30.466C121.48 24.764 125.468 20.4039 131.282 20.4039C134.002 20.4039 136.164 21.2982 137.804 22.7889C140.077 24.8759 141.195 28.1926 141.158 32.0685H127.443C127.816 34.6398 129.232 36.2423 131.729 36.2423C133.331 36.2423 134.375 35.5343 134.896 34.3418H140.822C140.412 36.056 139.294 37.6958 137.617 38.8512C136.015 39.9691 134.077 40.6027 131.654 40.6027C125.356 40.6027 121.48 36.2423 121.48 30.466ZM135.009 28.4536C134.785 26.1803 133.369 24.7266 131.393 24.7266C129.083 24.7266 127.89 26.1803 127.48 28.4536H135.009Z" clip-rule="evenodd"/><path fill="#E60023" fill-rule="evenodd" d="M74.2917 13.3975H63.7429V40.0437H69.8929V31.1369H75.2233C80.7017 31.1369 84.2421 27.5218 84.2421 22.4162C84.2421 19.733 83.2732 17.4595 81.5588 15.8572C79.919 14.2919 77.5338 13.3975 74.2917 13.3975ZM78.2783 22.3788C78.2783 24.5032 76.9368 25.9194 74.5516 25.9194H69.8929V18.9504H74.5516C76.8993 18.9504 78.2783 20.2547 78.2783 22.3788Z" clip-rule="evenodd"/></g><g id="Group_2"><path id="path60" fill="white" d="M55.4038 27.5216C55.4038 40.1881 45.1355 50.4564 32.469 50.4564C19.8026 50.4564 9.53424 40.1881 9.53424 27.5216C9.53424 14.855 19.8026 4.58686 32.469 4.58686C45.1355 4.58686 55.4038 14.855 55.4038 27.5216Z"/><path id="path64" fill="#E60023" d="M32.469 4.58686C19.8026 4.58686 9.53424 14.8552 9.53424 27.5216C9.53424 37.238 15.5795 45.5441 24.111 48.8859C23.9106 47.0713 23.7294 44.2805 24.1905 42.2996C24.6073 40.5096 26.8799 30.8995 26.8799 30.8995C26.8799 30.8995 26.1939 29.5256 26.1939 27.4944C26.1939 24.3053 28.0423 21.9244 30.3438 21.9244C32.3006 21.9244 33.2457 23.3935 33.2457 25.1551C33.2457 27.1229 31.9928 30.0649 31.3463 32.7913C30.806 35.0741 32.491 36.9357 34.7425 36.9357C38.8188 36.9357 41.9522 32.6376 41.9522 26.4333C41.9522 20.9419 38.0064 17.1026 32.3722 17.1026C25.8465 17.1026 22.0161 21.9972 22.0161 27.0556C22.0161 29.0268 22.7754 31.1405 23.723 32.2896C23.9104 32.5167 23.9379 32.7156 23.882 32.9474C23.7079 33.6718 23.321 35.2295 23.2451 35.5484C23.145 35.9682 22.9127 36.0573 22.478 35.855C19.6136 34.5217 17.8227 30.3338 17.8227 26.97C17.8227 19.7353 23.0792 13.0911 32.9766 13.0911C40.9327 13.0911 47.1155 18.7605 47.1155 26.3372C47.1155 34.2414 42.1318 40.6027 35.2144 40.6027C32.8903 40.6027 30.7056 39.3953 29.9577 37.9691C29.9577 37.9691 28.8077 42.3481 28.5289 43.4212C28.0111 45.4133 26.6133 47.9103 25.6784 49.4337C27.8242 50.0981 30.1047 50.4564 32.469 50.4564C45.1357 50.4564 55.404 40.1881 55.404 27.5216C55.404 14.8552 45.1357 4.58686 32.469 4.58686Z"/></g></g></g></svg>

<svg xmlns="http://www.w3.org/2000/svg" fill="none" aria-hidden="true" viewBox="0 0 211 56"><g fill="#E60023"><path d="M91.782 15.858a3.644 3.644 0 1 0-7.288 0 3.644 3.644 0 0 0 7.288 0Zm6.513 5.105h-5.85v19.08h6.074V29.498c0-2.348 1.341-4.025 3.354-4.025 1.975 0 2.981 1.379 2.981 3.392v11.18h6.075v-12.41c0-4.249-2.46-7.23-6.634-7.23-2.646 0-4.472 1.118-5.888 3.168h-.112v-2.61Zm-7.119 0H85.1v19.08h6.075v-19.08Zm61.872-.298c.232 0 .431.007.604.022v5.294c-3.473-.32-5.673 1.52-5.673 5.491v8.572h-6.074V20.963h5.814v2.981h.111c1.342-2.273 2.907-3.28 5.218-3.28Zm30.415 7.341a83.513 83.513 0 0 0-.882-.156c-2.041-.354-3.702-.643-3.702-1.819 0-1.192 1.155-1.751 2.646-1.751 1.677 0 2.832.521 3.056 2.236h5.59c-.298-3.764-3.205-6.112-8.609-6.112-4.509 0-8.236 2.087-8.236 6.112 0 4.472 3.54 5.366 6.857 5.925.265.047.528.09.786.134 2.206.37 4.059.679 4.059 2.214 0 1.23-1.155 1.9-2.981 1.9-1.832 0-3.044-.774-3.416-2.347h-5.788c.426 3.922 3.869 6.298 9.241 6.298 4.994 0 8.683-2.162 8.683-6.335 0-4.883-3.95-5.74-7.304-6.299Z"/><path fill-rule="evenodd" d="M159.125 32.068c.373 2.572 1.789 4.174 4.286 4.174 1.603 0 2.646-.708 3.168-1.9h5.925c-.41 1.714-1.528 3.354-3.205 4.51-1.602 1.117-3.54 1.75-5.963 1.75-6.298 0-10.174-4.36-10.174-10.136 0-5.702 3.988-10.062 9.802-10.062 2.72 0 4.882.894 6.522 2.385 2.273 2.087 3.391 5.404 3.354 9.28h-13.715Zm7.566-3.614c-.224-2.274-1.64-3.727-3.615-3.727-2.311 0-3.504 1.453-3.913 3.727h7.528Z" clip-rule="evenodd"/><path d="m201.466 35.544-.075.003c-.271.011-.614.025-.932.025-1.304 0-2.124-.373-2.124-1.864v-8.944h3.131v-3.801h-3.131v-6.037h-5.926v6.037h-1.864v3.801h1.864v10.249c0 4.1 2.535 5.254 6.075 5.254 1.351 0 2.372-.1 2.982-.22v-4.503Zm-80.473.028c.262 0 .542-.01.784-.02v4.534c-.623.101-1.561.181-2.759.181-3.54 0-6.074-1.155-6.074-5.255V24.764h-1.976v-3.801h1.976v-6.038h5.925v6.038h2.908v3.8h-2.908v8.945c0 1.49.82 1.864 2.124 1.864Z"/><path fill-rule="evenodd" d="M121.48 30.466c0-5.702 3.988-10.062 9.802-10.062 2.72 0 4.882.894 6.522 2.385 2.273 2.087 3.391 5.404 3.354 9.28h-13.715c.373 2.57 1.789 4.173 4.286 4.173 1.602 0 2.646-.708 3.167-1.9h5.926c-.41 1.714-1.528 3.354-3.205 4.51-1.602 1.117-3.54 1.75-5.963 1.75-6.298 0-10.174-4.36-10.174-10.136Zm13.529-2.012c-.224-2.274-1.64-3.727-3.616-3.727-2.31 0-3.503 1.453-3.913 3.727h7.529ZM74.292 13.398h-10.55v26.646h6.15v-8.907h5.331c5.479 0 9.02-3.615 9.02-8.72 0-2.684-.97-4.958-2.684-6.56-1.64-1.565-4.025-2.46-7.267-2.46Zm3.986 8.98c0 2.125-1.341 3.541-3.726 3.541h-4.66V18.95h4.66c2.347 0 3.726 1.305 3.726 3.429Z" clip-rule="evenodd"/></g><path fill="#fff" d="M55.404 27.522c0 12.666-10.269 22.934-22.935 22.934-12.666 0-22.935-10.268-22.935-22.934 0-12.667 10.269-22.935 22.935-22.935 12.666 0 22.935 10.268 22.935 22.935Z"/><path fill="#E60023" d="M32.469 4.587c-12.666 0-22.935 10.268-22.935 22.935 0 9.716 6.045 18.022 14.577 21.364-.2-1.815-.382-4.605.08-6.586.416-1.79 2.689-11.4 2.689-11.4s-.686-1.374-.686-3.406c0-3.189 1.848-5.57 4.15-5.57 1.957 0 2.902 1.47 2.902 3.231 0 1.968-1.253 4.91-1.9 7.636-.54 2.283 1.145 4.145 3.396 4.145 4.077 0 7.21-4.298 7.21-10.503 0-5.491-3.946-9.33-9.58-9.33-6.526 0-10.356 4.894-10.356 9.953 0 1.97.76 4.084 1.707 5.234.187.227.215.426.159.657-.174.725-.561 2.282-.637 2.601-.1.42-.332.51-.767.307-2.864-1.333-4.655-5.521-4.655-8.885 0-7.235 5.256-13.879 15.154-13.879 7.956 0 14.139 5.67 14.139 13.246 0 7.904-4.984 14.266-11.902 14.266-2.324 0-4.508-1.208-5.256-2.634 0 0-1.15 4.38-1.43 5.452-.517 1.992-1.915 4.49-2.85 6.013a22.923 22.923 0 0 0 6.791 1.022c12.667 0 22.935-10.268 22.935-22.934 0-12.667-10.268-22.935-22.935-22.935Z"/></svg>
